svgs/regular/game-board-simple.svg

<svg xmlns="http://www.w3.org/2000/svg" viewBox="0 0 448 512"><!--! Font Awesome Pro 6.0.0-alpha3 by @fontawesome - https://fontawesome.com License - https://fontawesome.com/license (Commercial License) --><path d="M224 400h144V256h-143.1L224 400zM384 32h-320C28.8 32 0 60.8 0 96v320c0 35.2 28.8 64 64 64h320c35.2 0 64-28.8 64-64V96C448 60.8 419.2 32 384 32zM400 416c0 8.674-7.326 16-16 16H64c-8.672 0-16-7.326-16-16V96c0-8.674 7.328-16 16-16h320c8.674 0 16 7.326 16 16V416zM80 112V256h144L224 112H80z"/></svg>

<svg xmlns="http://www.w3.org/2000/svg" viewBox="0 0 448 512"><!--! Font Awesome Pro 6.4.2 by @fontawesome - https://fontawesome.com License - https://fontawesome.com/license (Commercial License) Copyright 2023 Fonticons, Inc. --><path d="M384 80c8.8 0 16 7.2 16 16V416c0 8.8-7.2 16-16 16H64c-8.8 0-16-7.2-16-16V96c0-8.8 7.2-16 16-16H384zM64 32C28.7 32 0 60.7 0 96V416c0 35.3 28.7 64 64 64H384c35.3 0 64-28.7 64-64V96c0-35.3-28.7-64-64-64H64zm16 80V256H224V112H80zM224 256V400H368V256H224z"/></svg>
